assets/icons/meter/0-filled.svg

<?xml version="1.0" encoding="UTF-8" standalone="no"?>
<svg
   viewBox="0 0 24 24"
   width="24"
   height="24"
   version="1.1"
   id="svg8"
   sodipodi:docname="1-filled.svg"
   inkscape:version="1.2 (1:1.2.1+202207142221+cd75a1ee6d)"
   xmlns:inkscape="http://www.inkscape.org/namespaces/inkscape"
   xmlns:sodipodi="http://sodipodi.sourceforge.net/DTD/sodipodi-0.dtd"
   xmlns="http://www.w3.org/2000/svg"
   xmlns:svg="http://www.w3.org/2000/svg"
   xmlns:rdf="http://www.w3.org/1999/02/22-rdf-syntax-ns#"
   xmlns:cc="http://creativecommons.org/ns#"
   xmlns:dc="http://purl.org/dc/elements/1.1/">
  <defs
     id="defs2" />
  <sodipodi:namedview
     id="base"
     pagecolor="#ffffff"
     bordercolor="#666666"
     borderopacity="1.0"
     inkscape:pageopacity="0.0"
     inkscape:pageshadow="2"
     inkscape:zoom="32"
     inkscape:cx="9.78125"
     inkscape:cy="12.984375"
     inkscape:document-units="px"
     inkscape:current-layer="layer1"
     inkscape:document-rotation="0"
     showgrid="true"
     units="px"
     inkscape:snap-center="true"
     inkscape:window-width="1920"
     inkscape:window-height="1016"
     inkscape:window-x="0"
     inkscape:window-y="0"
     inkscape:window-maximized="1"
     inkscape:pagecheckerboard="0"
     inkscape:showpageshadow="2"
     inkscape:deskcolor="#d1d1d1">
    <inkscape:grid
       type="xygrid"
       id="grid833" />
    <inkscape:grid
       type="xygrid"
       id="grid846"
       dotted="true"
       spacingx="0.5"
       spacingy="0.5"
       empspacing="10" />
  </sodipodi:namedview>
  <metadata
     id="metadata5">
    <rdf:RDF>
      <cc:Work
         rdf:about="">
        <dc:format>image/svg+xml</dc:format>
        <dc:type
           rdf:resource="http://purl.org/dc/dcmitype/StillImage" />
      </cc:Work>
    </rdf:RDF>
  </metadata>
  <g
     inkscape:label="Calque 1"
     inkscape:groupmode="layer"
     id="layer1">
    <path
       id="path2747"
       style="color:#000000;fill:#808080;fill-rule:evenodd;stroke-linecap:round;stroke-linejoin:round;-inkscape-stroke:none"
       d="M 11 3.0117188 C 9.6340014 3.0828019 8.3456867 3.4473199 7.1914062 4.0371094 L 8.1835938 5.7539062 L 7.3164062 6.2539062 L 6.3261719 4.5371094 C 5.2137698 5.2621441 4.2621441 6.2137698 3.5371094 7.3261719 L 5.2539062 8.3164062 L 4.7539062 9.1835938 L 3.0371094 8.1914062 C 2.4473199 9.3456867 2.0828019 10.634001 2.0117188 12 L 4 12 L 4 13 L 2.0175781 13 C 2.0886761 14.365789 2.4479956 15.655049 3.0371094 16.808594 L 4.7539062 15.816406 L 5.2539062 16.683594 L 3.5390625 17.673828 C 4.4382 19.052935 5.6822174 20.186984 7.1542969 20.945312 A 0.50005 0.50005 0 0 0 7.3847656 21 L 15.617188 21 A 0.50005 0.50005 0 0 0 15.845703 20.945312 C 17.317381 20.186825 18.561707 19.052984 19.460938 17.673828 L 17.746094 16.683594 L 18.246094 15.816406 L 19.962891 16.808594 C 20.552219 15.65495 20.911289 14.365726 20.982422 13 L 19 13 L 19 12 L 20.988281 12 C 20.917198 10.634001 20.55268 9.3456867 19.962891 8.1914062 L 18.246094 9.1835938 L 17.746094 8.3164062 L 19.462891 7.3261719 C 18.737855 6.2137698 17.78623 5.2621441 16.673828 4.5371094 L 15.683594 6.2539062 L 14.816406 5.7539062 L 15.808594 4.0371094 C 14.654313 3.4473199 13.365999 3.0828019 12 3.0117188 L 12 5 L 11 5 L 11 3.0117188 z M 11.332031 11.009766 A 1.5 1.5 0 0 1 12.560547 11.439453 A 1.5 1.5 0 0 1 12.560547 13.560547 A 1.5 1.5 0 0 1 10.853516 13.853516 L 6.5507812 18.15625 L 5.84375 17.449219 L 10.146484 13.146484 A 1.5 1.5 0 0 1 10.439453 11.439453 A 1.5 1.5 0 0 1 11.332031 11.009766 z " />
    <g
       id="layer9"
       label="status"
       style="display:inline;stroke-width:0.8"
       transform="matrix(0.33072916,0,0,0.33072916,-294.81205,62.37552)" />
    <g
       id="layer2"
       style="display:inline;stroke-width:0.8"
       transform="matrix(0.33072916,0,0,0.33072916,-215.10626,-59.002082)" />
    <g
       id="layer4"
       style="display:inline;stroke-width:0.8"
       transform="matrix(0.33072916,0,0,0.33072916,-215.10626,-59.002082)" />
    <g
       id="g1812"
       style="display:inline;stroke-width:0.8"
       transform="matrix(0.33072916,0,0,0.33072916,-215.10626,-59.002082)" />
    <g
       id="g6217"
       style="display:inline;stroke-width:0.8"
       transform="matrix(0.33072916,0,0,0.33072916,-215.10626,-59.002082)" />
    <g
       id="layer3"
       style="display:inline;stroke-width:0.8"
       transform="matrix(0.33072916,0,0,0.33072916,-215.10626,-59.002082)" />
    <g
       id="layer1-6"
       style="display:inline;stroke-width:0.8"
       transform="matrix(0.33072916,0,0,0.33072916,-215.10626,-59.002082)" />
  </g>
</svg>

<svg width="24" height="24" xmlns="http://www.w3.org/2000/svg"><path style="color:#000;fill:gray;stroke-linecap:round;stroke-linejoin:round;-inkscape-stroke:none" d="M11 3.012a9.43 9.43 0 0 0-3.809 1.025l.993 1.717-.868.5-.99-1.717a9.57 9.57 0 0 0-2.789 2.79l1.717.99-.5.867-1.717-.993A9.43 9.43 0 0 0 2.012 12H4v1H2.018a9.434 9.434 0 0 0 1.02 3.809l1.716-.993.5.868-1.715.99a9.54 9.54 0 0 0 3.615 3.271.5.5 0 0 0 .23.055h8.233a.5.5 0 0 0 .229-.055 9.544 9.544 0 0 0 3.615-3.271l-1.715-.99.5-.868 1.717.993A9.432 9.432 0 0 0 20.983 13H19v-1h1.988a9.43 9.43 0 0 0-1.025-3.809l-1.717.993-.5-.868 1.717-.99a9.57 9.57 0 0 0-2.79-2.789l-.99 1.717-.867-.5.993-1.717A9.43 9.43 0 0 0 12 3.012V5h-1V3.012zm.332 7.998a1.5 1.5 0 0 1 1.229.43 1.5 1.5 0 0 1 0 2.12 1.5 1.5 0 0 1-1.707.294L6.55 18.156l-.707-.707 4.302-4.303a1.5 1.5 0 0 1 .293-1.707 1.5 1.5 0 0 1 .893-.43z"/></svg>
